X:1
T:Some Day
T:Some Day
T:Frank Marion Davis
T:Eben Eugene Rexford, 1882
T:Public Domain Courtesy of the Cyber Hymnal™
C:Frank Marion Davis
Z:Public Domain
Z:Courtesy of the Cyber Hymnal™
%%score ( 1 2 ) ( 3 4 )
L:1/8
Q:1/4=83
M:3/4
K:Db
V:1 treble 
V:2 treble 
V:3 bass 
V:4 bass 
V:1
"^Duet" [FA][^E=G] [FA] | [Fd]3 [Fc] [Ac][GB] | [FA]3 [FA] [EG][DF] | [EG]3 [GB] [FA][CE] | %4
w: 1.~I hear a|song, a song so|sweet, I try all|vain- ly to re-|
w: 2.~Some day my|jour- ney will be|done, Earth will be|lost and Hea- ven|
w: 3.~Some day, I|say, con- tent to|wait The open- ing|of the jas- per|
w: 4.~When comes the|time for me to|go, The home- ward|path I may not|
 [DF]3 [FA] [^E=G][FA] | [Fd]3 [Af] [Ge][Fd] | [GB]3 [Bd] [Ac][GB] | [GA]3 [GA] [GB][Gc] | [Fd]3 || %9
w: peat Its mel- o-|dy and feel- ing|say I’ll sing it|if God wills some|day.|
w: won; And when the|long rough way is|trod I shall be-|hold the face of|God.|
w: gate, Come soon or|late that day will|be The dawn of|end- less rest to|me.|
w: know, But in God’s|hand my own I’ll|lay, And He will|lead me home some|day.|
"^Chorus" AA [EA] | A3 z d [Ac][GB] | A3 [FA] [EG][DF] | [EG]3 [GB] [FA][EG] | %13
w: ||||
w: Some day, some|hap- py day to|be, My voice will|learn its mel- o-|
w: ||||
w: ||||
 [DF]3 [FA] [^E=G][FA] | [Fd]3 [Af] [Ae][Ad] | [GB]3 [Bd] [Ac][GB] | [GA]3 [GA] [GB][Gc] | [Fd]3 |] %18
w: |||||
w: dy, And I shall|sing the song so|sweet, Of rest and|Heav’n at Je- sus’|feet.|
w: |||||
w: |||||
V:2
 x3 | x6 | x6 | x6 | x6 | x6 | x6 | x6 | x3 || F2 x | (FF F2) x3 | (FF F) x3 | x6 | x6 | x6 | x6 | %16
 x6 | x3 |] %18
V:3
 z3 | ([D,A,D][D,A,D] [D,A,D]) z [D,A,D] z | ([D,A,D][D,A,D] [D,A,D]) z [D,A,D] z | %3
w: |~ * * ~|~ * * ~|
 ([A,,E,A,][A,,E,A,] [A,,E,A,]) z [A,,E,A,] z | ([D,A,][D,A,] [D,A,]) z [D,A,] z | %5
w: ~ * * ~|~ * * ~|
 ([D,A,D][D,A,D] [D,A,D])[D,A,D] [E,C][F,D] | ([G,D][G,D] [G,D]) z [G,D] z | %7
w: ~ * * ~ ~ ~|~ * * ~|
 ([A,CE][A,CE] [A,CE]) z [A,CE] z | ([D,A,D][D,A,D] [D,A,D]) || z2 [A,C] | %10
w: ~ * * ~|~ * *|Some|
 [A,D][A,C] (DA,) (A,C) x | [D,D][D,D] [D,D] z2 A, | [A,C][A,C] [A,C]2 (DC) | %13
w: hap- py day, * a *|day to be, My|voice will learn its *|
 [D,D][D,A,] [D,A,][D,D] [D,D][D,D] | [D,A,]3 [D,D] [E,C][F,D] | [G,D]3 [G,D] [G,D][G,D] | %16
w: mel- o- dy, * * *|||
 [A,C]3 [A,C] [A,,C][A,,A,] | [D,A,]3 |] %18
w: ||
V:4
 x3 | x6 | x6 | x6 | x6 | x6 | x6 | x6 | x3 || x3 | x2 A,2 A,,2 x | x5 A, | x4 A,2 | x6 | x6 | x6 | %16
 x6 | x3 |] %18

